images/icons/twitter.svg

<svg width="38" height="31" viewBox="0 0 38 31" fill="none" xmlns="http://www.w3.org/2000/svg">
<path d="M34.094 7.69162C34.1181 8.02917 34.1181 8.36679 34.1181 8.70434C34.1181 19 26.2819 30.863 11.9594 30.863C7.54696 30.863 3.44799 29.585 0 27.3669C0.626928 27.4392 1.22966 27.4633 1.88071 27.4633C5.52153 27.4633 8.87311 26.2336 11.5495 24.1359C8.12565 24.0635 5.25634 21.8211 4.26774 18.7348C4.75002 18.8071 5.23222 18.8553 5.73862 18.8553C6.43783 18.8553 7.13713 18.7589 7.7881 18.5902C4.21957 17.8668 1.54309 14.7323 1.54309 10.9467V10.8503C2.57985 11.429 3.78554 11.7907 5.06337 11.8388C2.96564 10.4403 1.59133 8.05329 1.59133 5.35275C1.59133 3.90607 1.97705 2.57993 2.65222 1.42256C6.486 6.14845 12.2487 9.2347 18.7106 9.57233C18.5901 8.99364 18.5177 8.39091 18.5177 7.7881C18.5177 3.49616 21.9898 0 26.3058 0C28.5482 0 30.5736 0.940355 31.9962 2.4594C33.7563 2.12185 35.4441 1.4708 36.9391 0.578686C36.3604 2.38711 35.1307 3.90615 33.5152 4.87055C35.0825 4.70185 36.6016 4.26774 38 3.66501C36.9393 5.2081 35.613 6.58241 34.094 7.69162Z" fill="white"/>
</svg>

<svg xmlns="http://www.w3.org/2000/svg" width="38" height="31" fill="none"><path fill="#fff" d="M34.094 7.692c.024.337.024.675.024 1.012 0 10.296-7.836 22.159-22.159 22.159A22.009 22.009 0 0 1 0 27.367c.627.072 1.23.096 1.88.096 3.642 0 6.993-1.23 9.67-3.327a7.802 7.802 0 0 1-7.282-5.401c.482.072.964.12 1.47.12.7 0 1.4-.096 2.05-.265a7.79 7.79 0 0 1-6.245-7.643v-.097a7.842 7.842 0 0 0 3.52.989 7.783 7.783 0 0 1-3.472-6.486 7.73 7.73 0 0 1 1.061-3.93 22.137 22.137 0 0 0 16.059 8.15 8.794 8.794 0 0 1-.193-1.785A7.785 7.785 0 0 1 26.306 0a7.77 7.77 0 0 1 5.69 2.46A15.333 15.333 0 0 0 36.94.578a7.767 7.767 0 0 1-3.424 4.292c1.568-.17 3.087-.603 4.485-1.206a16.741 16.741 0 0 1-3.906 4.027Z"/></svg>
